X:1
T:Title
%%score 1 2 3
L:1/8
Q:1/4=120
M:4/4
K:G
V:1 treble nm="Grand Piano"
V:2 bass nm="Grand Piano, Melody"
V:3 bass nm="Grand Piano"
V:1
 z4 B4 | A2 G2 F4 | G4 A2 G2 | d4 [Gd]4 | F2 G2 G4 | G4 G2 c2 | B4 B4 | A2 B2 c4 | A4 B2 ^c2 | %9
 d4 d4 | d2 G2 G4 | G4 G2 c2 | B8 |] %13
V:2
 z4 G,4 | F,2 G,2 A,4 | B,4 D2 B,2 | A,4 B,4 | A,2 G,2 E,4 | D,4 G,2 A,2 | G,4 G,4 | D2 D2 E4 | %8
 D4 B,2[K:bass] A,2 | A,4 A,4 | B,2 G,2 E,4 | D,4 G,2 A,2 | G,8 |] %13
V:3
 z4 G,4 | D,2 E,2 D,4 | G,4 F,2 G,2 | D,4 G,4 | D,2 E,2 C,4 | G,,4 E,2 D,2 | G,4 G,4 | %7
 F,2 G,2 C,4 | D,4 G,2 A,2 | D,4 D,4 | G,2 B,,2 C,4 | G,,4 E,2 D,2 | G,,8 |] %13

